X:114
T:Magic Dance. THO5.114, The
M:C|
L:1/8
B:Thompson's Complete Collection of 200 Favourite Dances Vol.5
F:https://www.libraryofdance.org/manuals/1780c-Thompson-Compleat-5.pdf
Z:vmp. Peter Dunk 2024
Q:1/4=140
K:A
cABG A2f2|ecdB A2 AB|cABG A2 df|ecdB A2 [A2A,2]:|
|:ccde f2e2|dcBA GB E2|ccde f>gae|dcBc A2 [A2A,2]:|
|:eAeA fAfA|eAeA cA B2|eAeA fAfA|ecBc A2A2:|
W:
W:First & 2nd Couple foot it and change sides ./.
W:the same back again ./:
W:Hands across round :/:
W:Allemands to the right :./.
W:Allemand to the left .:/:

